layanan/assets/img/img-systemdev/newlayout/unsupport-1.svg

<?xml version="1.0" encoding="UTF-8"?>
<svg width="60px" height="60px" viewBox="0 0 60 60" version="1.1" xmlns="http://www.w3.org/2000/svg" xmlns:xlink="http://www.w3.org/1999/xlink">
    <!-- Generator: Sketch 52.1 (67048) - http://www.bohemiancoding.com/sketch -->
    <title>software</title>
    <desc>Created with Sketch.</desc>
    <g id="Page-1" stroke="none" stroke-width="1" fill="none" fill-rule="evenodd">
        <g id="Web-Sistem---Landing-Page-" transform="translate(-397.000000, -3777.000000)">
            <g id="software" transform="translate(397.000000, 3777.000000)">
                <rect id="Rectangle" fill="#FFCA13" x="0" y="45" width="60" height="4"></rect>
                <polygon id="Rectangle-Copy-6" fill="#FFCA13" points="19.9223519 22 31 27.5826066 31 42 19 36.4100935"></polygon>
                <path d="M57.2937012,9.84375 L45,9.84375 C44.5143128,9.84375 44.1210938,10.236969 44.1210938,10.7226563 C44.1210938,11.2083435 44.5143128,11.6015625 45,11.6015625 L57.2937012,11.6015625 C57.8169251,11.6015625 58.2421875,12.0268249 58.2421875,12.5500488 L58.2421875,46.3952637 C58.2421875,46.9184876 57.8169251,47.34375 57.2937012,47.34375 L2.70629883,47.34375 C2.18307492,47.34375 1.7578125,46.9184876 1.7578125,46.3952637 L1.7578125,12.5500488 C1.7578125,12.0268249 2.18307492,11.6015625 2.70629883,11.6015625 L22.0166016,11.6015625 L22.0166016,13.359375 L4.39453125,13.359375 C3.90884402,13.359375 3.515625,13.752594 3.515625,14.2382813 L3.515625,37.4610901 C3.515625,37.9463196 3.90884402,38.3399964 4.39453125,38.3399964 C4.88021848,38.3399964 5.2734375,37.9463196 5.2734375,37.4610901 L5.2734375,15.1171875 L22.0166016,15.1171875 L22.0166016,19.8321533 L18.2537842,21.6297913 C17.9534912,21.773529 17.7539063,22.0838929 17.7539063,22.4230957 L17.7539063,36.7565918 C17.7539063,37.0953369 17.9484558,37.4038697 18.2537842,37.5498962 L29.6209717,42.9808044 C29.8672486,43.0966186 30.1451111,43.0906677 30.3790283,42.9808044 L36.7694092,39.9275208 C37.207489,39.7183228 37.3928834,39.1932679 37.1836853,38.7556458 C36.9744873,38.3175659 36.4489746,38.1321716 36.0113525,38.3413697 L30.8789063,40.7936096 L30.8789063,28.4078979 L40.4882813,23.8169861 L40.4882813,36.2026978 L39.1827393,36.8261719 C38.7446595,37.0353698 38.5592651,37.5604248 38.7684632,37.9980469 C38.9776611,38.4361267 39.5027161,38.6215209 39.9403382,38.412323 L41.7462158,37.5498962 C42.0515442,37.4038697 42.2460938,37.0953369 42.2460938,36.7565918 L42.2460938,22.4230957 C42.2460938,22.0880127 42.0510865,21.7758178 41.7462158,21.6297913 L37.9833984,19.8321533 L37.9833984,15.1171875 L54.7265625,15.1171875 L54.7265625,43.828125 L5.2734375,43.828125 L5.2734375,41.2110901 C5.2734375,40.7254029 4.88021848,40.3321839 4.39453125,40.3321839 C3.90884402,40.3321839 3.515625,40.7254029 3.515625,41.2110901 L3.515625,44.7070313 C3.515625,45.1927185 3.90884402,45.5859375 4.39453125,45.5859375 L55.6054688,45.5859375 C56.091156,45.5859375 56.484375,45.1927185 56.484375,44.7070313 L56.484375,14.2382813 C56.484375,13.752594 56.091156,13.359375 55.6054688,13.359375 L37.9833984,13.359375 L37.9833984,11.6015625 L41.25,11.6015625 C41.7356872,11.6015625 42.1289063,11.2083435 42.1289063,10.7226563 C42.1289063,10.236969 41.7356872,9.84375 41.25,9.84375 L37.9833984,9.84375 L37.9833984,8.0859375 L45.8642578,8.0859375 C46.349945,8.0859375 46.7431641,7.69271848 46.7431641,7.20703125 L46.7431641,5.12237555 C47.7662659,4.75936887 48.5009766,3.78250125 48.5009766,2.63671875 C48.5009766,1.18286133 47.3181152,0 45.8642578,0 C44.4104004,0 43.2275391,1.18286133 43.2275391,2.63671875 C43.2275391,3.78250125 43.9622497,4.75936887 44.9853516,5.12237555 L44.9853516,6.328125 L37.1044922,6.328125 C36.618805,6.328125 36.2255859,6.72134402 36.2255859,7.20703125 L36.2255859,9.84375 L30.8789063,9.84375 L30.8789063,5.12237555 C31.9020081,4.75936887 32.6367188,3.78250125 32.6367188,2.63671875 C32.6367188,1.18286133 31.4538574,0 30,0 C28.5461426,0 27.3632813,1.18286133 27.3632813,2.63671875 C27.3632813,3.78250125 28.0979919,4.75936887 29.1210938,5.12237555 L29.1210938,9.84375 L23.7744141,9.84375 L23.7744141,7.20703125 C23.7744141,6.72134402 23.381195,6.328125 22.8955078,6.328125 L15.0146484,6.328125 L15.0146484,5.12237555 C16.0377503,4.75936887 16.7724609,3.78250125 16.7724609,2.63671875 C16.7724609,1.18286133 15.5895996,0 14.1357422,0 C12.6818848,0 11.4990234,1.18286133 11.4990234,2.63671875 C11.4990234,3.78250125 12.2337341,4.75936887 13.2568359,5.12237555 L13.2568359,7.20703125 C13.2568359,7.69271848 13.650055,8.0859375 14.1357422,8.0859375 L22.0166016,8.0859375 L22.0166016,9.84375 L2.70629883,9.84375 C1.21398926,9.84375 0,11.0577393 0,12.5500488 L0,46.3952637 C0,47.8875732 1.21398926,49.1015625 2.70629883,49.1015625 L21.7611694,49.1015625 C21.4210511,52.3255921 19.2892455,54.208374 18.6172486,54.7265625 L14.8828125,54.7265625 C13.4289551,54.7265625 12.2460938,55.9094238 12.2460938,57.3632813 C12.2460938,58.8171387 13.4289551,60 14.8828125,60 L45.1171875,60 C46.5710449,60 47.7539063,58.8171387 47.7539063,57.3632813 C47.7539063,55.9094238 46.5710449,54.7265625 45.1171875,54.7265625 L41.3850403,54.7265625 C40.7217408,54.2102051 38.5826111,52.3104858 38.2397461,49.1015625 L57.2937012,49.1015625 C58.7860107,49.1015625 60,47.8875732 60,46.3952637 L60,12.5500488 C60,11.0577393 58.7860107,9.84375 57.2937012,9.84375 Z M45.8642578,1.7578125 C46.3490296,1.7578125 46.7431641,2.15194699 46.7431641,2.63671875 C46.7431641,3.12149051 46.3490296,3.515625 45.8642578,3.515625 C45.3794861,3.515625 44.9853516,3.12149051 44.9853516,2.63671875 C44.9853516,2.15194699 45.3794861,1.7578125 45.8642578,1.7578125 Z M30,1.7578125 C30.4847718,1.7578125 30.8789063,2.15194699 30.8789063,2.63671875 C30.8789063,3.12149051 30.4847718,3.515625 30,3.515625 C29.5152282,3.515625 29.1210938,3.12149051 29.1210938,2.63671875 C29.1210938,2.15194699 29.5152282,1.7578125 30,1.7578125 Z M14.1357422,1.7578125 C14.6205139,1.7578125 15.0146484,2.15194699 15.0146484,2.63671875 C15.0146484,3.12149051 14.6205139,3.515625 14.1357422,3.515625 C13.6509704,3.515625 13.2568359,3.12149051 13.2568359,2.63671875 C13.2568359,2.15194699 13.6509704,1.7578125 14.1357422,1.7578125 Z M23.7744141,15.1171875 L29.1210938,15.1171875 L29.1210938,16.4378357 L23.7744141,18.9926147 L23.7744141,15.1171875 Z M39.328308,22.4230957 L30,26.8794251 L20.671692,22.4230957 L30,17.9663086 L39.328308,22.4230957 Z M19.5117188,23.8169861 L29.1210938,28.4078979 L29.1210938,40.7936096 L19.5117188,36.2026978 L19.5117188,23.8169861 Z M36.2255859,18.9926147 L30.8789063,16.4378357 L30.8789063,15.1171875 L36.2255859,15.1171875 L36.2255859,18.9926147 Z M36.2255859,11.6015625 L36.2255859,13.359375 L30.8789063,13.359375 L30.8789063,11.6015625 L36.2255859,11.6015625 Z M29.1210938,11.6015625 L29.1210938,13.359375 L23.7744141,13.359375 L23.7744141,11.6015625 L29.1210938,11.6015625 Z M45.9960938,57.3632813 C45.9960938,57.848053 45.6019593,58.2421875 45.1171875,58.2421875 L14.8828125,58.2421875 C14.3980407,58.2421875 14.0039063,57.848053 14.0039063,57.3632813 C14.0039063,56.8785095 14.3980407,56.484375 14.8828125,56.484375 L45.1171875,56.484375 C45.6019593,56.484375 45.9960938,56.8785095 45.9960938,57.3632813 Z M38.8641357,54.7265625 L21.1358643,54.7265625 C22.1662903,53.5231018 23.3093262,51.647644 23.528595,49.1015625 L36.471405,49.1015625 C36.6906738,51.647644 37.8337097,53.5231018 38.8641357,54.7265625 Z" id="Shape" fill="#000000" fill-rule="nonzero"></path>
            </g>
        </g>
    </g>
</svg>

<svg id="Layer_1" data-name="Layer 1" xmlns="http://www.w3.org/2000/svg" viewBox="0 0 60 60"><path d="M0,45H60v4H0Z" style="fill:#ffca13;fill-rule:evenodd"/><path d="M19.92,22,31,27.58V42L19,36.41Z" style="fill:#ffca13;fill-rule:evenodd"/><path d="M57.29,9.84H45a.88.88,0,1,0,0,1.76H57.29a1,1,0,0,1,1,1V46.4a.94.94,0,0,1-1,.94H2.71a.94.94,0,0,1-.95-.94V12.55a1,1,0,0,1,1-1H22v1.76H4.39a.87.87,0,0,0-.87.88V37.46a.88.88,0,1,0,1.75,0V15.12H22v4.71l-3.77,1.8a.88.88,0,0,0-.5.79V36.76a.89.89,0,0,0,.5.79L29.62,43a.88.88,0,0,0,.76,0l6.39-3A.88.88,0,0,0,36,38.34l-5.13,2.45V28.41l9.61-4.59V36.2l-1.31.63a.88.88,0,1,0,.76,1.58l1.81-.86a.89.89,0,0,0,.5-.79V22.42a.9.9,0,0,0-.5-.79L38,19.83V15.12H54.73V43.83H5.27V41.21a.88.88,0,1,0-1.75,0v3.5a.88.88,0,0,0,.87.88H55.61a.88.88,0,0,0,.87-.88V14.24a.87.87,0,0,0-.87-.88H38V11.6h3.27a.88.88,0,1,0,0-1.76H38V8.09h7.88a.88.88,0,0,0,.88-.88V5.12a2.64,2.64,0,1,0-1.75,0V6.33H37.1a.87.87,0,0,0-.87.88V9.84H30.88V5.12a2.64,2.64,0,1,0-1.76,0V9.84H23.77V7.21a.87.87,0,0,0-.87-.88H15V5.12a2.64,2.64,0,1,0-1.75,0V7.21a.88.88,0,0,0,.88.88H22V9.84H2.71A2.71,2.71,0,0,0,0,12.55V46.4a2.7,2.7,0,0,0,2.71,2.7H21.76a8.39,8.39,0,0,1-3.14,5.63H14.88a2.64,2.64,0,0,0,0,5.27H45.12a2.64,2.64,0,0,0,0-5.27H41.39a8.44,8.44,0,0,1-3.15-5.63h19A2.7,2.7,0,0,0,60,46.4V12.55A2.71,2.71,0,0,0,57.29,9.84ZM45.86,1.76a.88.88,0,1,1-.87.88A.87.87,0,0,1,45.86,1.76ZM30,1.76a.88.88,0,1,1-.88.88A.88.88,0,0,1,30,1.76Zm-15.86,0a.88.88,0,1,1-.88.88A.87.87,0,0,1,14.14,1.76Zm9.63,13.36h5.35v1.32L23.77,19Zm15.56,7.3L30,26.88l-9.33-4.46L30,18Zm-19.82,1.4,9.61,4.59V40.79L19.51,36.2ZM36.23,19l-5.35-2.55V15.12h5.35Zm0-7.39v1.76H30.88V11.6Zm-7.11,0v1.76H23.77V11.6ZM46,57.36a.88.88,0,0,1-.88.88H14.88a.88.88,0,1,1,0-1.76H45.12A.89.89,0,0,1,46,57.36Zm-7.14-2.63H21.14a9.94,9.94,0,0,0,2.39-5.63H36.47A9.94,9.94,0,0,0,38.86,54.73Z"/></svg>
